static/img/kroki/ee5f4411f47b0a764c6a84498a651121.svg

<?xml version="1.0" encoding="us-ascii" standalone="no"?><svg xmlns="http://www.w3.org/2000/svg" xmlns:xlink="http://www.w3.org/1999/xlink" contentStyleType="text/css" height="1033px" preserveAspectRatio="none" style="width:469px;height:1033px;" version="1.1" viewBox="0 0 469 1033" width="469px" zoomAndPan="magnify"><defs/><g><!--class gcp_accelerator_type--><g id="elem_gcp_accelerator_type"><rect codeLine="22" fill="#3D176E" height="74.0859" id="gcp_accelerator_type" rx="2.5" ry="2.5" style="stroke:#000D19;stroke-width:0.5;" width="341" x="7" y="712.73"/><ellipse cx="80.75" cy="732.6245" fill="#ADD1B2" rx="11" ry="11" style="stroke:#181818;stroke-width:1.0;"/><path d="M83.7188,738.2652 Q83.1406,738.562 82.5,738.7027 Q81.8594,738.8589 81.1563,738.8589 Q78.6563,738.8589 77.3281,737.2183 Q76.0156,735.562 76.0156,732.437 Q76.0156,729.312 77.3281,727.6558 Q78.6563,725.9995 81.1563,725.9995 Q81.8594,725.9995 82.5,726.1558 Q83.1563,726.312 83.7188,726.6089 L83.7188,729.3277 Q83.0938,728.7495 82.5,728.4839 Q81.9063,728.2027 81.2813,728.2027 Q79.9375,728.2027 79.25,729.2808 Q78.5625,730.3433 78.5625,732.437 Q78.5625,734.5308 79.25,735.6089 Q79.9375,736.6714 81.2813,736.6714 Q81.9063,736.6714 82.5,736.4058 Q83.0938,736.1245 83.7188,735.5464 L83.7188,738.2652 Z " fill="#000000"/><text fill="#D9B8FF" font-family="Helvetica" font-size="17" lengthAdjust="spacing" textLength="175" x="106.25" y="738.5098">gcp_accelerator_type</text><line style="stroke:#000D19;stroke-width:0.5;" x1="8" x2="347" y1="752.5191" y2="752.5191"/><text fill="#D9B8FF" font-family="sans-serif" font-size="14" font-weight="bold" lengthAdjust="spacing" textLength="275" x="18" y="774.5142">type_maximum_cards_per_instance</text><text fill="#D9B8FF" font-family="sans-serif" font-size="14" lengthAdjust="spacing" textLength="44" x="293" y="774.5142">: int64</text></g><!--class gcp_deprecation_status--><g id="elem_gcp_deprecation_status"><rect codeLine="25" fill="#3D176E" height="179.2734" id="gcp_deprecation_status" rx="2.5" ry="2.5" style="stroke:#000D19;stroke-width:0.5;" width="237" x="170" y="846.82"/><ellipse cx="185" cy="866.7145" fill="#ADD1B2" rx="11" ry="11" style="stroke:#181818;stroke-width:1.0;"/><path d="M187.9688,872.3552 Q187.3906,872.652 186.75,872.7927 Q186.1094,872.9489 185.4063,872.9489 Q182.9063,872.9489 181.5781,871.3083 Q180.2656,869.652 180.2656,866.527 Q180.2656,863.402 181.5781,861.7458 Q182.9063,860.0895 185.4063,860.0895 Q186.1094,860.0895 186.75,860.2458 Q187.4063,860.402 187.9688,860.6989 L187.9688,863.4177 Q187.3438,862.8395 186.75,862.5739 Q186.1563,862.2927 185.5313,862.2927 Q184.1875,862.2927 183.5,863.3708 Q182.8125,864.4333 182.8125,866.527 Q182.8125,868.6208 183.5,869.6989 Q184.1875,870.7614 185.5313,870.7614 Q186.1563,870.7614 186.75,870.4958 Q187.3438,870.2145 187.9688,869.6364 L187.9688,872.3552 Z " fill="#000000"/><text fill="#D9B8FF" font-family="Helvetica" font-size="17" lengthAdjust="spacing" textLength="195" x="204" y="872.5998">gcp_deprecation_status</text><line style="stroke:#000D19;stroke-width:0.5;" x1="171" x2="406" y1="886.6091" y2="886.6091"/><text fill="#D9B8FF" font-family="sans-serif" font-size="14" font-weight="bold" lengthAdjust="spacing" textLength="60" x="181" y="908.6042">deleted</text><text fill="#D9B8FF" font-family="sans-serif" font-size="14" lengthAdjust="spacing" textLength="48" x="241" y="908.6042">: string</text><text fill="#D9B8FF" font-family="sans-serif" font-size="14" font-weight="bold" lengthAdjust="spacing" textLength="91" x="181" y="934.9011">deprecated</text><text fill="#D9B8FF" font-family="sans-serif" font-size="14" lengthAdjust="spacing" textLength="48" x="272" y="934.9011">: string</text><text fill="#D9B8FF" font-family="sans-serif" font-size="14" font-weight="bold" lengthAdjust="spacing" textLength="69" x="181" y="961.1979">obsolete</text><text fill="#D9B8FF" font-family="sans-serif" font-size="14" lengthAdjust="spacing" textLength="48" x="250" y="961.1979">: string</text><text fill="#D9B8FF" font-family="sans-serif" font-size="14" font-weight="bold" lengthAdjust="spacing" textLength="99" x="181" y="987.4948">replacement</text><text fill="#D9B8FF" font-family="sans-serif" font-size="14" lengthAdjust="spacing" textLength="48" x="280" y="987.4948">: string</text><text fill="#D9B8FF" font-family="sans-serif" font-size="14" font-weight="bold" lengthAdjust="spacing" textLength="40" x="181" y="1013.7917">state</text><text fill="#D9B8FF" font-family="sans-serif" font-size="14" lengthAdjust="spacing" textLength="48" x="221" y="1013.7917">: string</text></g><!--class gcp_resource--><g id="elem_gcp_resource"><rect codeLine="32" fill="#3D176E" height="152.9766" id="gcp_resource" rx="2.5" ry="2.5" style="stroke:#000D19;stroke-width:0.5;" width="348" x="114.5" y="438.75"/><ellipse cx="225.25" cy="458.6445" fill="#ADD1B2" rx="11" ry="11" style="stroke:#181818;stroke-width:1.0;"/><path d="M228.2188,464.2852 Q227.6406,464.582 227,464.7227 Q226.3594,464.8789 225.6563,464.8789 Q223.1563,464.8789 221.8281,463.2383 Q220.5156,461.582 220.5156,458.457 Q220.5156,455.332 221.8281,453.6758 Q223.1563,452.0195 225.6563,452.0195 Q226.3594,452.0195 227,452.1758 Q227.6563,452.332 228.2188,452.6289 L228.2188,455.3477 Q227.5938,454.7695 227,454.5039 Q226.4063,454.2227 225.7813,454.2227 Q224.4375,454.2227 223.75,455.3008 Q223.0625,456.3633 223.0625,458.457 Q223.0625,460.5508 223.75,461.6289 Q224.4375,462.6914 225.7813,462.6914 Q226.4063,462.6914 227,462.4258 Q227.5938,462.1445 228.2188,461.5664 L228.2188,464.2852 Z " fill="#000000"/><text fill="#D9B8FF" font-family="Helvetica" font-size="17" lengthAdjust="spacing" textLength="108" x="250.75" y="464.5298">gcp_resource</text><line style="stroke:#000D19;stroke-width:0.5;" x1="115.5" x2="461.5" y1="478.5391" y2="478.5391"/><text fill="#D9B8FF" font-family="sans-serif" font-size="14" font-weight="bold" lengthAdjust="spacing" textLength="151" x="125.5" y="500.5342">deprecation_status</text><text fill="#D9B8FF" font-family="sans-serif" font-size="14" lengthAdjust="spacing" textLength="175" x="276.5" y="500.5342">: gcp_deprecation_status</text><text fill="#D9B8FF" font-family="sans-serif" font-size="14" font-weight="bold" lengthAdjust="spacing" textLength="89" x="125.5" y="526.8311">description</text><text fill="#D9B8FF" font-family="sans-serif" font-size="14" lengthAdjust="spacing" textLength="48" x="214.5" y="526.8311">: string</text><text fill="#D9B8FF" font-family="sans-serif" font-size="14" font-weight="bold" lengthAdjust="spacing" textLength="128" x="125.5" y="553.1279">label_fingerprint</text><text fill="#D9B8FF" font-family="sans-serif" font-size="14" lengthAdjust="spacing" textLength="48" x="253.5" y="553.1279">: string</text><text fill="#D9B8FF" font-family="sans-serif" font-size="14" font-weight="bold" lengthAdjust="spacing" textLength="27" x="125.5" y="579.4248">link</text><text fill="#D9B8FF" font-family="sans-serif" font-size="14" lengthAdjust="spacing" textLength="48" x="152.5" y="579.4248">: string</text></g><!--class resource--><g id="elem_resource"><rect codeLine="38" fill="#3D176E" height="310.7578" id="resource" rx="2.5" ry="2.5" style="stroke:#000D19;stroke-width:0.5;" width="227" x="175" y="7"/><ellipse cx="243.75" cy="26.8945" fill="#ADD1B2" rx="11" ry="11" style="stroke:#181818;stroke-width:1.0;"/><path d="M246.7188,32.5352 Q246.1406,32.832 245.5,32.9727 Q244.8594,33.1289 244.1563,33.1289 Q241.6563,33.1289 240.3281,31.4883 Q239.0156,29.832 239.0156,26.707 Q239.0156,23.582 240.3281,21.9258 Q241.6563,20.2695 244.1563,20.2695 Q244.8594,20.2695 245.5,20.4258 Q246.1563,20.582 246.7188,20.8789 L246.7188,23.5977 Q246.0938,23.0195 245.5,22.7539 Q244.9063,22.4727 244.2813,22.4727 Q242.9375,22.4727 242.25,23.5508 Q241.5625,24.6133 241.5625,26.707 Q241.5625,28.8008 242.25,29.8789 Q242.9375,30.9414 244.2813,30.9414 Q244.9063,30.9414 245.5,30.6758 Q246.0938,30.3945 246.7188,29.8164 L246.7188,32.5352 Z " fill="#000000"/><text fill="#D9B8FF" font-family="Helvetica" font-size="17" lengthAdjust="spacing" textLength="71" x="269.25" y="32.7798">resource</text><line style="stroke:#000D19;stroke-width:0.5;" x1="176" x2="401" y1="46.7891" y2="46.7891"/><text fill="#D9B8FF" font-family="sans-serif" font-size="14" font-weight="bold" lengthAdjust="spacing" textLength="29" x="186" y="68.7842">age</text><text fill="#D9B8FF" font-family="sans-serif" font-size="14" lengthAdjust="spacing" textLength="66" x="215" y="68.7842">: duration</text><text fill="#D9B8FF" font-family="sans-serif" font-size="14" font-weight="bold" lengthAdjust="spacing" textLength="43" x="186" y="95.0811">atime</text><text fill="#D9B8FF" font-family="sans-serif" font-size="14" lengthAdjust="spacing" textLength="70" x="229" y="95.0811">: datetime</text><text fill="#D9B8FF" font-family="sans-serif" font-size="14" font-weight="bold" lengthAdjust="spacing" textLength="43" x="186" y="121.3779">ctime</text><text fill="#D9B8FF" font-family="sans-serif" font-size="14" lengthAdjust="spacing" textLength="70" x="229" y="121.3779">: datetime</text><text fill="#D9B8FF" font-family="sans-serif" font-size="14" font-weight="bold" lengthAdjust="spacing" textLength="14" x="186" y="147.6748">id</text><text fill="#D9B8FF" font-family="sans-serif" font-size="14" lengthAdjust="spacing" textLength="48" x="200" y="147.6748">: string</text><text fill="#D9B8FF" font-family="sans-serif" font-size="14" font-weight="bold" lengthAdjust="spacing" textLength="33" x="186" y="173.9717">kind</text><text fill="#D9B8FF" font-family="sans-serif" font-size="14" lengthAdjust="spacing" textLength="48" x="219" y="173.9717">: string</text><text fill="#D9B8FF" font-family="sans-serif" font-size="14" font-weight="bold" lengthAdjust="spacing" textLength="90" x="186" y="200.2686">last_access</text><text fill="#D9B8FF" font-family="sans-serif" font-size="14" lengthAdjust="spacing" textLength="66" x="276" y="200.2686">: duration</text><text fill="#D9B8FF" font-family="sans-serif" font-size="14" font-weight="bold" lengthAdjust="spacing" textLength="90" x="186" y="226.5654">last_update</text><text fill="#D9B8FF" font-family="sans-serif" font-size="14" lengthAdjust="spacing" textLength="66" x="276" y="226.5654">: duration</text><text fill="#D9B8FF" font-family="sans-serif" font-size="14" font-weight="bold" lengthAdjust="spacing" textLength="48" x="186" y="252.8623">mtime</text><text fill="#D9B8FF" font-family="sans-serif" font-size="14" lengthAdjust="spacing" textLength="70" x="234" y="252.8623">: datetime</text><text fill="#D9B8FF" font-family="sans-serif" font-size="14" font-weight="bold" lengthAdjust="spacing" textLength="43" x="186" y="279.1592">name</text><text fill="#D9B8FF" font-family="sans-serif" font-size="14" lengthAdjust="spacing" textLength="48" x="229" y="279.1592">: string</text><text fill="#D9B8FF" font-family="sans-serif" font-size="14" font-weight="bold" lengthAdjust="spacing" textLength="34" x="186" y="305.4561">tags</text><text fill="#D9B8FF" font-family="sans-serif" font-size="14" lengthAdjust="spacing" textLength="171" x="220" y="305.4561">: dictionary[string, string]</text></g><!--link gcp_accelerator_type to gcp_deprecation_status--><g id="link_gcp_accelerator_type_gcp_deprecation_status"><path codeLine="50" d="M199.43,787.26 C208.92,803.06 220.52,822.34 232.16,841.72 " fill="none" id="gcp_accelerator_type-to-gcp_deprecation_status" style="stroke:#FFAF37;stroke-width:2.0;"/><polygon fill="#FFAF37" points="235.12,845.64,233.8956,835.8675,232.537,841.3588,227.0457,840.0003,235.12,845.64" style="stroke:#FFAF37;stroke-width:2.0;"/></g><!--reverse link gcp_resource to gcp_accelerator_type--><g id="link_gcp_resource_gcp_accelerator_type"><path codeLine="51" d="M243.28,610.97 C226.22,646.7 207.82,685.25 194.83,712.46 " fill="none" id="gcp_resource-backto-gcp_accelerator_type" style="stroke:#FFAF37;stroke-width:2.0;"/><polygon fill="none" points="237.38,608.09,252.31,593.06,250.01,614.12,237.38,608.09" style="stroke:#FFAF37;stroke-width:2.0;"/></g><!--link gcp_resource to gcp_deprecation_status--><g id="link_gcp_resource_gcp_deprecation_status"><path codeLine="52" d="M331.85,592.22 C357.31,646.22 381.63,720.62 365.5,786.82 C361.04,805.11 353.91,823.67 345.74,841.18 " fill="none" id="gcp_resource-to-gcp_deprecation_status" style="stroke:#FFAF37;stroke-width:2.0;"/><polygon fill="#FFAF37" points="343.17,845.58,350.643,839.1648,345.3141,841.0631,343.4159,835.7342,343.17,845.58" style="stroke:#FFAF37;stroke-width:2.0;"/></g><!--reverse link resource to gcp_resource--><g id="link_resource_gcp_resource"><path codeLine="53" d="M288.5,338.65 C288.5,373.73 288.5,408.82 288.5,438.31 " fill="none" id="resource-backto-gcp_resource" style="stroke:#FFAF37;stroke-width:2.0;"/><polygon fill="none" points="281.5,339.04,288.5,319.04,295.5,339.04,281.5,339.04" style="stroke:#FFAF37;stroke-width:2.0;"/></g><!--SRC=[XP9DZzCm48Rl_HMMzbOHgMLXkqK8QQc4uB92B3U4eeazIQt67nexBENZlsCdNMGdQVUMlFFCp3lZsKk139NrHwPGLKXkuGvIMo1Gx8x8FEvCQuXTrJNKrvjny8FH_bdW7XIoZzZ-G2yvZ8clUyaF6frZBvFGU-27XaodnL3U4sWNGgXzGkrQSExEUv9Lvp4n8xRLRLsFoN7HgskntjpW13Caa4x8QhKIw-qOURRLnRd_4m_o5x9rkhHxut5YSzAYfowwZ4HYSZBeK_oinyyWXDGDUvreNmPFf94o_M4FmZn6keRMfMsSHqBZZnPtawbmUolgpIpywHpCu-POmsq9d6EB1DvG6LFOxyLo6JzA1J-bwbJ9WOGhBL8fjVEWEIwNRvZK_kRLuczIIQ0bvE2bqMNWVEVwMYAKzoXYZWi7ffjU6z2HR2fd8fo9XBO5ZYfSRAR75YcPMY5qfYEE9mDZNp5htd6FEqxIHZ7hrqA5RLc77oGRjDnDA_LXnanc19hUh-YeRnaLBzMWXLdYTz3uZ2RpFOMN5YDlplSlwToeGn_fh3ZjAececJuQLBvy3yrGKVAO1dJyDiHUd9ZlOTJPCogAT-TsdBtGspz5KSnUOivTg3TJwqdw1m00]--></g></svg>

<svg xmlns="http://www.w3.org/2000/svg" width="469" height="1033" preserveAspectRatio="none" style="width:469px;height:1033px"><rect width="341" height="74.086" x="7" y="712.73" fill="#3D176E" rx="2.5" ry="2.5" style="stroke:#000d19;stroke-width:.5"/><circle cx="80.75" cy="732.625" r="11" fill="#ADD1B2" style="stroke:#181818;stroke-width:1"/><path d="M83.719 738.265q-.578.297-1.219.438-.64.156-1.344.156-2.5 0-3.828-1.64-1.312-1.657-1.312-4.782t1.312-4.781Q78.656 726 81.156 726q.703 0 1.344.156.656.156 1.219.453v2.719q-.625-.578-1.219-.844-.594-.281-1.219-.281-1.344 0-2.031 1.078-.688 1.062-.688 3.156 0 2.094.688 3.172.688 1.062 2.031 1.062.625 0 1.219-.265.594-.281 1.219-.86v2.72Z"/><text x="106.25" y="738.51" fill="#D9B8FF" font-family="Helvetica" font-size="17" textLength="175">gcp_accelerator_type</text><path d="M8 752.519h339" style="stroke:#000d19;stroke-width:.5"/><text x="18" y="774.514" fill="#D9B8FF" font-family="sans-serif" font-size="14" font-weight="bold" textLength="275">type_maximum_cards_per_instance</text><text x="293" y="774.514" fill="#D9B8FF" font-family="sans-serif" font-size="14" textLength="44">: int64</text><rect width="237" height="179.273" x="170" y="846.82" fill="#3D176E" rx="2.5" ry="2.5" style="stroke:#000d19;stroke-width:.5"/><circle cx="185" cy="866.715" r="11" fill="#ADD1B2" style="stroke:#181818;stroke-width:1"/><path d="M187.969 872.355q-.578.297-1.219.438-.64.156-1.344.156-2.5 0-3.828-1.64-1.312-1.657-1.312-4.782t1.312-4.781q1.328-1.656 3.828-1.656.703 0 1.344.156.656.156 1.219.453v2.719q-.625-.578-1.219-.844-.594-.281-1.219-.281-1.344 0-2.031 1.078-.688 1.062-.688 3.156 0 2.094.688 3.172.688 1.062 2.031 1.062.625 0 1.219-.265.594-.281 1.219-.86v2.72Z"/><text x="204" y="872.6" fill="#D9B8FF" font-family="Helvetica" font-size="17" textLength="195">gcp_deprecation_status</text><path d="M171 886.609h235" style="stroke:#000d19;stroke-width:.5"/><text x="181" y="908.604" fill="#D9B8FF" font-family="sans-serif" font-size="14" font-weight="bold" textLength="60">deleted</text><text x="241" y="908.604" fill="#D9B8FF" font-family="sans-serif" font-size="14" textLength="48">: string</text><text x="181" y="934.901" fill="#D9B8FF" font-family="sans-serif" font-size="14" font-weight="bold" textLength="91">deprecated</text><text x="272" y="934.901" fill="#D9B8FF" font-family="sans-serif" font-size="14" textLength="48">: string</text><text x="181" y="961.198" fill="#D9B8FF" font-family="sans-serif" font-size="14" font-weight="bold" textLength="69">obsolete</text><text x="250" y="961.198" fill="#D9B8FF" font-family="sans-serif" font-size="14" textLength="48">: string</text><text x="181" y="987.495" fill="#D9B8FF" font-family="sans-serif" font-size="14" font-weight="bold" textLength="99">replacement</text><text x="280" y="987.495" fill="#D9B8FF" font-family="sans-serif" font-size="14" textLength="48">: string</text><text x="181" y="1013.792" fill="#D9B8FF" font-family="sans-serif" font-size="14" font-weight="bold" textLength="40">state</text><text x="221" y="1013.792" fill="#D9B8FF" font-family="sans-serif" font-size="14" textLength="48">: string</text><rect width="348" height="152.977" x="114.5" y="438.75" fill="#3D176E" rx="2.5" ry="2.5" style="stroke:#000d19;stroke-width:.5"/><circle cx="225.25" cy="458.644" r="11" fill="#ADD1B2" style="stroke:#181818;stroke-width:1"/><path d="M228.219 464.285q-.578.297-1.219.438-.64.156-1.344.156-2.5 0-3.828-1.64-1.312-1.657-1.312-4.782t1.312-4.781q1.328-1.656 3.828-1.656.703 0 1.344.156.656.156 1.219.453v2.719q-.625-.579-1.219-.844-.594-.281-1.219-.281-1.344 0-2.031 1.078-.688 1.062-.688 3.156 0 2.094.688 3.172.688 1.062 2.031 1.062.625 0 1.219-.265.594-.281 1.219-.86v2.72Z"/><text x="250.75" y="464.53" fill="#D9B8FF" font-family="Helvetica" font-size="17" textLength="108">gcp_resource</text><path d="M115.5 478.539h346" style="stroke:#000d19;stroke-width:.5"/><text x="125.5" y="500.534" fill="#D9B8FF" font-family="sans-serif" font-size="14" font-weight="bold" textLength="151">deprecation_status</text><text x="276.5" y="500.534" fill="#D9B8FF" font-family="sans-serif" font-size="14" textLength="175">: gcp_deprecation_status</text><text x="125.5" y="526.831" fill="#D9B8FF" font-family="sans-serif" font-size="14" font-weight="bold" textLength="89">description</text><text x="214.5" y="526.831" fill="#D9B8FF" font-family="sans-serif" font-size="14" textLength="48">: string</text><text x="125.5" y="553.128" fill="#D9B8FF" font-family="sans-serif" font-size="14" font-weight="bold" textLength="128">label_fingerprint</text><text x="253.5" y="553.128" fill="#D9B8FF" font-family="sans-serif" font-size="14" textLength="48">: string</text><text x="125.5" y="579.425" fill="#D9B8FF" font-family="sans-serif" font-size="14" font-weight="bold" textLength="27">link</text><text x="152.5" y="579.425" fill="#D9B8FF" font-family="sans-serif" font-size="14" textLength="48">: string</text><rect width="227" height="310.758" x="175" y="7" fill="#3D176E" rx="2.5" ry="2.5" style="stroke:#000d19;stroke-width:.5"/><circle cx="243.75" cy="26.895" r="11" fill="#ADD1B2" style="stroke:#181818;stroke-width:1"/><path d="M246.719 32.535q-.578.297-1.219.438-.64.156-1.344.156-2.5 0-3.828-1.64-1.312-1.657-1.312-4.782t1.312-4.781q1.328-1.656 3.828-1.656.703 0 1.344.156.656.156 1.219.453v2.719q-.625-.578-1.219-.844-.594-.281-1.219-.281-1.344 0-2.031 1.078-.688 1.062-.688 3.156 0 2.094.688 3.172.688 1.062 2.031 1.062.625 0 1.219-.265.594-.281 1.219-.86v2.72Z"/><text x="269.25" y="32.78" fill="#D9B8FF" font-family="Helvetica" font-size="17" textLength="71">resource</text><path d="M176 46.789h225" style="stroke:#000d19;stroke-width:.5"/><text x="186" y="68.784" fill="#D9B8FF" font-family="sans-serif" font-size="14" font-weight="bold" textLength="29">age</text><text x="215" y="68.784" fill="#D9B8FF" font-family="sans-serif" font-size="14" textLength="66">: duration</text><text x="186" y="95.081" fill="#D9B8FF" font-family="sans-serif" font-size="14" font-weight="bold" textLength="43">atime</text><text x="229" y="95.081" fill="#D9B8FF" font-family="sans-serif" font-size="14" textLength="70">: datetime</text><text x="186" y="121.378" fill="#D9B8FF" font-family="sans-serif" font-size="14" font-weight="bold" textLength="43">ctime</text><text x="229" y="121.378" fill="#D9B8FF" font-family="sans-serif" font-size="14" textLength="70">: datetime</text><text x="186" y="147.675" fill="#D9B8FF" font-family="sans-serif" font-size="14" font-weight="bold" textLength="14">id</text><text x="200" y="147.675" fill="#D9B8FF" font-family="sans-serif" font-size="14" textLength="48">: string</text><text x="186" y="173.972" fill="#D9B8FF" font-family="sans-serif" font-size="14" font-weight="bold" textLength="33">kind</text><text x="219" y="173.972" fill="#D9B8FF" font-family="sans-serif" font-size="14" textLength="48">: string</text><text x="186" y="200.269" fill="#D9B8FF" font-family="sans-serif" font-size="14" font-weight="bold" textLength="90">last_access</text><text x="276" y="200.269" fill="#D9B8FF" font-family="sans-serif" font-size="14" textLength="66">: duration</text><text x="186" y="226.565" fill="#D9B8FF" font-family="sans-serif" font-size="14" font-weight="bold" textLength="90">last_update</text><text x="276" y="226.565" fill="#D9B8FF" font-family="sans-serif" font-size="14" textLength="66">: duration</text><text x="186" y="252.862" fill="#D9B8FF" font-family="sans-serif" font-size="14" font-weight="bold" textLength="48">mtime</text><text x="234" y="252.862" fill="#D9B8FF" font-family="sans-serif" font-size="14" textLength="70">: datetime</text><text x="186" y="279.159" fill="#D9B8FF" font-family="sans-serif" font-size="14" font-weight="bold" textLength="43">name</text><text x="229" y="279.159" fill="#D9B8FF" font-family="sans-serif" font-size="14" textLength="48">: string</text><text x="186" y="305.456" fill="#D9B8FF" font-family="sans-serif" font-size="14" font-weight="bold" textLength="34">tags</text><text x="220" y="305.456" fill="#D9B8FF" font-family="sans-serif" font-size="14" textLength="171">: dictionary[string, string]</text><path fill="none" d="M199.43 787.26c9.49 15.8 21.09 35.08 32.73 54.46" style="stroke:#ffaf37;stroke-width:2"/><path fill="#FFAF37" d="m235.12 845.64-1.224-9.773-1.359 5.492-5.491-1.359 8.074 5.64z" style="stroke:#ffaf37;stroke-width:2"/><path fill="none" d="M243.28 610.97c-17.06 35.73-35.46 74.28-48.45 101.49m42.55-104.37 14.93-15.03-2.3 21.06-12.63-6.03zm94.47-15.87c25.46 54 49.78 128.4 33.65 194.6-4.46 18.29-11.59 36.85-19.76 54.36" style="stroke:#ffaf37;stroke-width:2"/><path fill="#FFAF37" d="m343.17 845.58 7.473-6.415-5.329 1.898-1.898-5.329-.246 9.846z" style="stroke:#ffaf37;stroke-width:2"/><path fill="none" d="M288.5 338.65v99.66m-7-99.27 7-20 7 20h-14z" style="stroke:#ffaf37;stroke-width:2"/></svg>
